X: 23
T: Off to California
T: the Whiskey Hornpipe
N: Similar to Green Fields of America and Old Mother Flanigan
Z: 1997 by John Chambers <jc@trillian.mit.edu>
M: C|
L: 1/8
K: G
(3DEF \
| "G"GFGB "D7"AFED | "G"GBdg "C"e2"D7"(3def \
| "G"gfgd "Em"edBG |1 "Am"ABAG "D7"E2 :|2 "D7"ABAF "G"G2 :|
|: (3def \
| "Em"gfeg "D"fedf | "Em"edef edB2 \
| "G"gfgd "Em"edBG |1 "Am"ABAG "D7"E2(3DEF |
| "G"~G2GB "D7"AFED | "G"GBdg "C"e2"D7"(3def \
| "G"gfgd "Em"edBG | "D7"ABAF "G"G2 :|
%%sep 2 1 500
